X: 161002
T: Press Gang
S: Darley & McCall Collection
Z: B.Black
L: 1/8
M: 6/8
R: jig
K: G
D|GAF GAB|def g2 f/e/|deB cBA|AGE E2D|
GAF GAB|def g2 f/e/|deB cBA|AGF G2 :|
D|GAF GAB|AGE E2D|GAF GAB|AGE E2D|
GAF GAB|def g2 f/e/|deB cBA|AGF G2 :|
